icons/eye-hidden-filled.svg

<svg width="24" height="24" viewBox="0 0 24 24" fill="none" xmlns="http://www.w3.org/2000/svg">
<path d="M11.78 8C10.7952 8.05168 9.8643 8.46587 9.1666 9.16283C8.4689 9.85979 8.05372 10.7902 8.001 11.775L8 11.773L4.618 15.123C3.93246 14.599 3.27583 14.0381 2.651 13.443C2.651 13.443 2 12.926 2 11.996C2 11.066 2.654 10.544 2.654 10.544C5.855 7.511 8.99 6 11.995 5.995C12.5422 5.99462 13.0883 6.04281 13.627 6.139L11.775 7.995L11.78 8.001V8ZM15.99 12.204L16 12.214L19.368 8.844C20.0647 9.37281 20.7314 9.94002 21.365 10.543C21.365 10.543 21.995 11.065 21.995 11.995C21.995 12.925 21.387 13.425 21.387 13.425C18.177 16.472 15 17.99 11.995 17.995C11.4522 17.9952 10.9104 17.9473 10.376 17.852L12.2 15.995L12.195 15.99C13.1844 15.9419 14.1207 15.5279 14.822 14.8282C15.5233 14.1286 15.9396 13.1933 15.99 12.204ZM20.23 2.354C20.701 1.882 21.172 1.882 21.644 2.354C22.115 2.825 22.115 3.296 21.644 3.768L3.774 21.636C3.302 22.108 2.83 22.108 2.359 21.636C1.888 21.165 1.888 20.693 2.359 20.222L20.229 2.354H20.23Z" fill="#3A3A47"/>
</svg>

<svg xmlns="http://www.w3.org/2000/svg" width="24" height="24" viewBox="0 0 24 24">
    <path fill="#3A3A47" fill-rule="evenodd" d="M21.644 2.354c.471.471.471.942 0 1.414L3.774 21.636c-.472.472-.944.472-1.415 0-.471-.471-.471-.943 0-1.414l17.87-17.868c.472-.472.943-.472 1.415 0zm-3.01 7.223l.734-.734a23.55 23.55 0 0 1 1.997 1.7s.63.522.63 1.452c0 .93-.608 1.43-.608 1.43-3.21 3.047-6.387 4.565-9.392 4.57a9.202 9.202 0 0 1-1.619-.143l1.646-1.676.178-.181a4.001 4.001 0 0 0 3.79-3.792l.01.01c1.198-1.197 2.076-2.076 2.635-2.636l.733-.734zm-6.639-3.582a9.25 9.25 0 0 1 1.632.144l-.076.076-.991.993-.785.787A4.002 4.002 0 0 0 8 11.775l-3.383 3.349a23.876 23.876 0 0 1-1.967-1.68S2 12.925 2 11.995s.654-1.452.654-1.452C5.855 7.511 8.99 6 11.995 5.995z"/>
</svg>
